X:1
T:Title
%%score { ( 1 3 ) | ( 2 4 ) }
L:1/8
M:4/2
K:Ab
V:1 treble nm="Grand Piano"
V:3 treble 
V:2 bass 
V:4 bass 
V:1
 z8 z4[Q:1/4=192] [CE]4 | [Ec]6 [EG]2 [EB]2 [EA]2 [EG]2 [EA]2 | [Fc]6 [B,FB]2 [B,F]4 [DF]4 | %3
 G6 B2 A2 G2 F2 G2 | [DB]6 [CA]2 [CE]4 [CE]4 | [Ec]6 [EG]2 [EB]2 [EA]2 [=EG]2 [EA]2 | z8 [FB]8 | %7
 A4 [EG]2 F2 E2 A2 B2 c2 | d6 G2 A4 A4 | A6 G2 F2 G2 A2 B2 | [Gc]6 G2 G4 [=EG]4 | %11
 A6 G2 A2 B2 c2 [A=d]2 | [A=d]6 [Ge]2 [Ge]4 E4 | [Ec]6 [=EG]2 B2 A2 G2 A2 | z8 [FB]8 | %15
 A4 [EG]2 F2 E2 A2 B2 c2 |[M:6/4] d6 G2 [CEA]4 |] %17
V:2
 z8 z4 [A,,A,]4 | [A,,A,]6 [A,,A,]2 [C,A,]2 [C,A,]2 [C,A,]2 [C,A,]2 | [D,A,]6 D,2 D,4 B,,4 | %3
 [E,DE]6 [E,DE]2 [E,DE]2 [E,DE]2 [E,B,D]2 [E,B,D]2 | [A,,G,]6 [A,,A,]2 [A,,A,]4 [A,,A,]4 | %5
 [A,,A,]6 [A,,A,]2 [C,A,]2 [C,A,]2 [C,A,]2 [C,A,]2 | [D,A,]6 [D,=A,]2 B,8 | %7
 [E,CE]4 [C,A,]2 [D,A,D]2 [E,A,C]2 [E,CE]2 [E,G,E]2 [E,A,E]2 | [E,B,E]6 [E,DE]2 [A,CE]4 [A,CE]4 | %9
 [F,CF]6 [F,B,C]2 [F,A,C]2 [F,A,C]2 [F,CF]2 [F,CF]2 | [=E,C]6 [E,C]2 [E,C]4 [C,C]4 | %11
 [F,CF]6 [F,DF]2 [F,CF]2 [F,B,F]2 [F,A,F]2 [F,B,]2 | [F,B,]6 [E,B,]2 [E,B,]4 [D,G,]4 | %13
 [C,A,]6 [C,C]2 [F,CF]2 [F,CF]2 [F,B,F]2 [F,CF]2 | [B,,B,]6 [C,=A,]2 [D,B,]4 B,,4 | %15
 [E,CE]4 [C,A,]2 [D,A,D]2 [E,A,C]2 [E,CE]2 [E,G,E]2 [E,A,E]2 |[M:6/4] [E,B,E]6 [E,DE]2 A,,4 |] %17
V:3
 x16 | x16 | x16 | x16 | x16 | x16 | [Fd]6 [Fc]2 z4 =D,4 | x16 | x16 | x16 | x16 | x16 | x16 | %13
 x16 | [Fd]6 [Fc]2 z4 D4 | x16 |[M:6/4] x12 |] %17
V:4
 x16 | x16 | x16 | x16 | x16 | x16 | z8 D,4 z4 | x16 | x16 | x16 | x16 | x16 | x16 | x16 | x16 | %15
 x16 |[M:6/4] x12 |] %17

